X: 1
T: Saint Barnard's Waltz
R: waltz
Z: 1997 John Chambers <jc:trillian.mit.edu>
M: 3/4
L: 1/4
K: F
"Intro"[|]\
DE | "Bb"FED | FED | "F"CFA | "D7"ccB | "G7"A3 | "C7"G3 | "F"F3 C/=B,/ C/D/ | C/C/ D/E/ F/G/ ||
|: "F"A3 | F3 | C2^C | D2C | A3 | c3 | "Gm"B3- | B3 |
